X: 50
T:Athole Flowers of Edinburgh
% Nottingham Music Database
S:Athole p 144, via EF
M:4/4
L:1/4
K:G
G/2E/2|"G"D3/2E/2 G3/2A/2|"G"B/2G/2d/2B/2 c/2B/2A/2G/2|\
"Am"F/2G/2F/2E/2 D/2E/2F/2G/2|"Am"A/2F/2d/2F/2 "D7"E3/2F/2|
"G"D3/2E/2 G3/2A/2|"G"B/2G/2B/2d/2 "C"e/2f/2g/2e/2|\
"Em"d/2c/2B/2A/2 "D7"G/2F/2G/2A/2|"G"BG G:||:
d|"G"g/2f/2g/2e/2 g/2b/2a/2g/2|"D"f/2d/2f/2g/2 f/2a/2g/2f/2|\
"Em"e/2d/2e/2f/2 "B7"g/2f/2e/2d/2|
"Em"Be/2f/2 "D7"e/2f/2g/2e/2|"G"d/2B/2G/2B/2 dd|"C"e/2g/2f/2a/2 "G"gf/2e/2|\
"Em"d/2c/2B/2A/2 "D7"G/2F/2G/2A/2|"G"BG G:|


